X:17
K: Bb
M: 4/4
L: 1/4
T: Ki, ki, ki, ki volt itt...
g d g2 | g d g2 | 
g g/a/ g c | f<e d2 | 
g c =B G | d c =B2 | 
c c/d/ c F | B<_A G2 | 

